svg/icon/yoyow.svg

<svg height="32" viewBox="0 0 32 32" width="32" xmlns="http://www.w3.org/2000/svg" xmlns:xlink="http://www.w3.org/1999/xlink"><defs><linearGradient id="a" x1="50%" x2="50%" y1="0%" y2="100%"><stop offset="0" stop-color="#fff" stop-opacity=".5"/><stop offset="1" stop-opacity=".5"/></linearGradient><circle id="b" cx="16" cy="15" r="15"/><filter id="c" height="111.7%" width="111.7%" x="-5.8%" y="-4.2%"><feOffset dy=".5" in="SourceAlpha" result="shadowOffsetOuter1"/><feGaussianBlur in="shadowOffsetOuter1" result="shadowBlurOuter1" stdDeviation=".5"/><feComposite in="shadowBlurOuter1" in2="SourceAlpha" operator="out" result="shadowBlurOuter1"/><feColorMatrix in="shadowBlurOuter1" values="0 0 0 0 0   0 0 0 0 0   0 0 0 0 0  0 0 0 0.199473505 0"/></filter><path id="d" d="m21.490858 15.5748321c.3382119.3637603.544645.8487755.544645 1.3813723 0 1.1287571-.927221 2.0437956-2.071006 2.0437956-1.1437849 0-2.0710059-.9150385-2.0710059-2.0437956 0-.5325968.2064331-1.017612.544645-1.3813723-.1256242.0971655-.2839007.1550949-.4558876.1550949-.4084946 0-.7396449-.3267994-.7396449-.729927 0-.1697272.0587006-.3259242.1571598-.4498978-.3686034.3337683-.8600759.537489-1.3997634.537489s-1.03116-.2037207-1.3997634-.537489c.0984592.1239736.1571598.2801706.1571598.4498978 0 .4031276-.3311503.729927-.7396449.729927-.1719869 0-.3302634-.0579294-.4558876-.1550949.3382119.3637603.544645.8487755.544645 1.3813723 0 1.1287571-.927221 2.0437956-2.0710059 2.0437956-1.143785 0-2.07100596-.9150385-2.07100596-2.0437956 0-.5325968.20643306-1.017612.54464496-1.3813723-.1256242.0971655-.2839007.1550949-.4558876.1550949-.4084946 0-.73964493-.3267994-.73964493-.729927 0-.1697272.05870064-.3259242.15715982-.4498978-.36860334.3337683-.86007585.537489-1.39976337.537489-1.14378499 0-2.07100592-.9150384-2.07100592-2.0437956 0-1.1287571.92722093-2.0437956 2.07100592-2.0437956 1.14378498 0 2.07100588.9150385 2.07100588 2.0437956 0 .5325968-.206433 1.017612-.54464493 1.3813723.12562417-.0971655.28390074-.1550949.45588753-.1550949.4084947 0 .739645.3267994.739645.729927 0 .1697272-.0587006.3259242-.1571598.4498978.3686033-.3337683.8600758-.537489 1.3997634-.537489.5396875 0 1.03116.2037207 1.3997633.537489-.0984591-.1239736-.1571598-.2801706-.1571598-.4498978 0-.4031276.3311503-.729927.739645-.729927.1719868 0 .3302634.0579294.4558876.1550949-.338212-.3637603-.544645-.8487755-.544645-1.3813723 0-1.1287571.9272209-2.0437956 2.0710059-2.0437956s2.0710059.9150385 2.0710059 2.0437956c0 .5325968-.206433 1.017612-.544645 1.3813723.1256242-.0971655.2839008-.1550949.4558876-.1550949.4084947 0 .739645.3267994.739645.729927 0 .1697272-.0587007.3259242-.1571598.4498978.3686033-.3337683.8600758-.537489 1.3997633-.537489.5396876 0 1.0311601.2037207 1.3997634.537489-.0984592-.1239736-.1571598-.2801706-.1571598-.4498978 0-.4031276.3311503-.729927.739645-.729927.1719868 0 .3302634.0579294.4558875.1550949-.3382119-.3637603-.5446449-.8487755-.5446449-1.3813723 0-1.1287571.9272209-2.0437956 2.0710059-2.0437956s2.0710059.9150385 2.0710059 2.0437956c0 1.1287572-.9272209 2.0437956-2.0710059 2.0437956-.5396875 0-1.03116-.2037207-1.3997634-.537489.0984592.1239736.1571598.2801706.1571598.4498978 0 .4031276-.3311503.729927-.7396449.729927-.1719869 0-.3302634-.0579294-.4558876-.1550949z"/><filter id="e" height="143.8%" width="117.5%" x="-8.8%" y="-15.6%"><feOffset dy=".5" in="SourceAlpha" result="shadowOffsetOuter1"/><feGaussianBlur in="shadowOffsetOuter1" result="shadowBlurOuter1" stdDeviation=".5"/><feColorMatrix in="shadowBlurOuter1" values="0 0 0 0 0   0 0 0 0 0   0 0 0 0 0  0 0 0 0.204257246 0"/></filter></defs><g fill="none" fill-rule="nonzero"><g><use fill="#000" filter="url(#c)" xlink:href="#b"/><use fill="#21a5de" fill-rule="evenodd" xlink:href="#b"/><use fill="url(#a)" fill-rule="evenodd" xlink:href="#b"/><circle cx="16" cy="15" r="14.5" stroke="#000" stroke-opacity=".097"/></g><g><use fill="#000" filter="url(#e)" xlink:href="#d"/><use fill="#fff" fill-rule="evenodd" xlink:href="#d"/></g></g></svg>

<svg xmlns="http://www.w3.org/2000/svg" xmlns:xlink="http://www.w3.org/1999/xlink" width="32" height="32" viewBox="0 0 32 32">
  <defs>
    <linearGradient id="yoyow-c" x1="50%" x2="50%" y1="0%" y2="100%">
      <stop offset="0%" stop-color="#FFF" stop-opacity=".5"/>
      <stop offset="100%" stop-opacity=".5"/>
    </linearGradient>
    <circle id="yoyow-b" cx="16" cy="15" r="15"/>
    <filter id="yoyow-a" width="111.7%" height="111.7%" x="-5.8%" y="-4.2%" filterUnits="objectBoundingBox">
      <feOffset dy=".5" in="SourceAlpha" result="shadowOffsetOuter1"/>
      <feGaussianBlur in="shadowOffsetOuter1" result="shadowBlurOuter1" stdDeviation=".5"/>
      <feComposite in="shadowBlurOuter1" in2="SourceAlpha" operator="out" result="shadowBlurOuter1"/>
      <feColorMatrix in="shadowBlurOuter1" values="0 0 0 0 0   0 0 0 0 0   0 0 0 0 0  0 0 0 0.199473505 0"/>
    </filter>
    <path id="yoyow-e" d="M21.490858,15.5748321 C21.8290699,15.9385924 22.035503,16.4236076 22.035503,16.9562044 C22.035503,18.0849615 21.108282,19 19.964497,19 C18.8207121,19 17.8934911,18.0849615 17.8934911,16.9562044 C17.8934911,16.4236076 18.0999242,15.9385924 18.4381361,15.5748321 C18.3125119,15.6719976 18.1542354,15.729927 17.9822485,15.729927 C17.5737539,15.729927 17.2426036,15.4031276 17.2426036,15 C17.2426036,14.8302728 17.3013042,14.6740758 17.3997634,14.5501022 C17.03116,14.8838705 16.5396875,15.0875912 16,15.0875912 C15.4603125,15.0875912 14.96884,14.8838705 14.6002366,14.5501022 C14.6986958,14.6740758 14.7573964,14.8302728 14.7573964,15 C14.7573964,15.4031276 14.4262461,15.729927 14.0177515,15.729927 C13.8457646,15.729927 13.6874881,15.6719976 13.5618639,15.5748321 C13.9000758,15.9385924 14.1065089,16.4236076 14.1065089,16.9562044 C14.1065089,18.0849615 13.1792879,19 12.035503,19 C10.891718,19 9.96449704,18.0849615 9.96449704,16.9562044 C9.96449704,16.4236076 10.1709301,15.9385924 10.509142,15.5748321 C10.3835178,15.6719976 10.2252413,15.729927 10.0532544,15.729927 C9.6447598,15.729927 9.31360947,15.4031276 9.31360947,15 C9.31360947,14.8302728 9.37231011,14.6740758 9.47076929,14.5501022 C9.10216595,14.8838705 8.61069344,15.0875912 8.07100592,15.0875912 C6.92722093,15.0875912 6,14.1725528 6,13.0437956 C6,11.9150385 6.92722093,11 8.07100592,11 C9.2147909,11 10.1420118,11.9150385 10.1420118,13.0437956 C10.1420118,13.5763924 9.9355788,14.0614076 9.59736687,14.4251679 C9.72299104,14.3280024 9.88126761,14.270073 10.0532544,14.270073 C10.4617491,14.270073 10.7928994,14.5968724 10.7928994,15 C10.7928994,15.1697272 10.7341988,15.3259242 10.6357396,15.4498978 C11.0043429,15.1161295 11.4958154,14.9124088 12.035503,14.9124088 C12.5751905,14.9124088 13.066663,15.1161295 13.4352663,15.4498978 C13.3368072,15.3259242 13.2781065,15.1697272 13.2781065,15 C13.2781065,14.5968724 13.6092568,14.270073 14.0177515,14.270073 C14.1897383,14.270073 14.3480149,14.3280024 14.4736391,14.4251679 C14.1354271,14.0614076 13.9289941,13.5763924 13.9289941,13.0437956 C13.9289941,11.9150385 14.856215,11 16,11 C17.143785,11 18.0710059,11.9150385 18.0710059,13.0437956 C18.0710059,13.5763924 17.8645729,14.0614076 17.5263609,14.4251679 C17.6519851,14.3280024 17.8102617,14.270073 17.9822485,14.270073 C18.3907432,14.270073 18.7218935,14.5968724 18.7218935,15 C18.7218935,15.1697272 18.6631928,15.3259242 18.5647337,15.4498978 C18.933337,15.1161295 19.4248095,14.9124088 19.964497,14.9124088 C20.5041846,14.9124088 20.9956571,15.1161295 21.3642604,15.4498978 C21.2658012,15.3259242 21.2071006,15.1697272 21.2071006,15 C21.2071006,14.5968724 21.5382509,14.270073 21.9467456,14.270073 C22.1187324,14.270073 22.277009,14.3280024 22.4026331,14.4251679 C22.0644212,14.0614076 21.8579882,13.5763924 21.8579882,13.0437956 C21.8579882,11.9150385 22.7852091,11 23.9289941,11 C25.0727791,11 26,11.9150385 26,13.0437956 C26,14.1725528 25.0727791,15.0875912 23.9289941,15.0875912 C23.3893066,15.0875912 22.8978341,14.8838705 22.5292307,14.5501022 C22.6276899,14.6740758 22.6863905,14.8302728 22.6863905,15 C22.6863905,15.4031276 22.3552402,15.729927 21.9467456,15.729927 C21.7747587,15.729927 21.6164822,15.6719976 21.490858,15.5748321 Z"/>
    <filter id="yoyow-d" width="117.5%" height="143.8%" x="-8.8%" y="-15.6%" filterUnits="objectBoundingBox">
      <feOffset dy=".5" in="SourceAlpha" result="shadowOffsetOuter1"/>
      <feGaussianBlur in="shadowOffsetOuter1" result="shadowBlurOuter1" stdDeviation=".5"/>
      <feColorMatrix in="shadowBlurOuter1" values="0 0 0 0 0   0 0 0 0 0   0 0 0 0 0  0 0 0 0.204257246 0"/>
    </filter>
  </defs>
  <g fill="none" fill-rule="evenodd">
    <g fill-rule="nonzero">
      <use fill="#000" filter="url(#yoyow-a)" xlink:href="#yoyow-b"/>
      <use fill="#21A5DE" fill-rule="evenodd" xlink:href="#yoyow-b"/>
      <use fill="url(#yoyow-c)" fill-rule="evenodd" style="mix-blend-mode:soft-light" xlink:href="#yoyow-b"/>
      <circle cx="16" cy="15" r="14.5" stroke="#000" stroke-opacity=".097"/>
    </g>
    <g fill-rule="nonzero">
      <use fill="#000" filter="url(#yoyow-d)" xlink:href="#yoyow-e"/>
      <use fill="#FFF" fill-rule="evenodd" xlink:href="#yoyow-e"/>
    </g>
  </g>
</svg>
